-----BEGIN PGP PUBLIC KEY BLOCK-----

mQINBGQcrX0BEADasanJMPF0aeu/HOwy9my3nqp8AkssYmwzhB3ZcMrSg/8uYKXk
S+sMLktYriSa0A9uJ+udVPUGmOfKb6aRscr032eBPxB+OCCFr8uUdDEs/HgXdzlr
hz6yApFMiYyypCKkwNu5+MAm3PCQLjE7Z7UmdU7tcfSnjZlhsB1OnzIj7V4+EUa3
zd5T320AwNHkep13S6IZChOSRcuXwfMWP4C2By5WfAp8EOemw+M+eUhPfpwEy7+T
0yEgJKc2mbXV3NOMqGuPAJZiJ8zx0LCGdvuJnLS1Pr+HMkeSJ7rgnIfSW5uqviDC
4Jq+mLC4j7/PtWFzKSdnjlHfOxacWtviUaybdO9dRhrOAzm7Yc/BgDew08mrvaev
Pwuxd+u37fxIAAGIV0SHC+LdRhs3/rUBVSx0p4rHYgVu5fne684XRgmVVYJgWfES
94PEcP+EtHHr4ygQKXBW0IAMLklSvO5G1ZmEYX5GO7p3Rx30X5m2i+x4TkzKSFUv
CnjCcuXTOIlT9Fppjh8Rjv+gsrqXxQrnjOI49/uQBgMEWtc5qLPPkS7krCsCgkmg
+CR9aPDZLXLY7rF7Q+hk8XuAFFm/9OkAa6PV8Aw8u9Fyr6Pk/VX8P+geAcli+S43
0XDjPNJcIlXXTNZYz7P9MWE2jrgV/p/M2akzDjGn4VwW1D1nIO2B7PM4gQARAQAB
iQKJBB8BCgB9BYJkHK19AwsJBwkQUIkXA+B+UKpHFAAAAAAAHgAgc2FsdEBub3Rh
dGlvbnMuc2VxdW9pYS1wZ3Aub3JnbdZbdZuSqN0zcx9x5voq2M8lm/XrnvFvQTad
fGjKC0EDFQoIApsDAh4BFiEEPxDw2P6E8GmNPK8nUIkXA+B+UKoAAHMWD/9Zc/8I
e46sNLpT4hqoPil1k0aLm197xPY35Ny22fn56WfdJYy1+BoL3mW9HUza9MnofgoI
D/OrtKB7yAt1puHUYaTstK2hEN0Gevhp0cLLCF6afhfin9lvf+Gq7pTm5rMZkhpv
ajORz1Fo/izwJ/xA4gaICex8e23aPl68z7NkfOkq37Sj+r2kuX9EtlkEGGw9idoo
Vzm5ejh2+Qf69XPmaRZfsIUV21x/I6x9PbT37oTIcuHRhbWSM+hqq0f6hhlyQAgt
uzCn6pP1xmy54wUKOjxhx7wAKE2HDP+AvaK+u29zdRF4pvhsQ+iRFZXFs86F3jwB
lj7qhoMP/hN5nutXWx4rZQCCTa4DpzqaWU/d4ERRg6dQJ/WtGtOUilRfsJLI3p3j
TzO1toxKXkGGeyIqfQk3PLKq8yUZoYs/zgzPdoYZVBdtKsLdM8x4KE7U7dJhjvlq
ud8LEky3Y+F+2SG9JWAeFBz+mxlVNLilHDm2Ux+rS8A+18ecbMQj7JqEJV439COE
G1RExpy7B+cCbEWIQCfoOI9P35aKAeGaHHxLhMtiJkobFKwsihEog/UTWFKBlbi4
w97hyZ5dg+pqVurG5WesYJDzO45OhgvvEQgMGIgJaLjRPCn8CHd2jx5hC4dFZaG5
27ypui+Lbb3EF1bbO+fmg64cvGf8BXv3xUeuA7Q3U29oYSBKaW4gKGFsc28g6YeR
5bCR5rW3IG9yIEpJTiwgU2hhb2hhaSkgPHNvaGFAamluLnNoPokCUQQTAQoAOwIb
AwULCQgHAgYVCgkICwIEFgIDAQIeAQIXgBYhBD8Q8Nj+hPBpjTyvJ1CJFwPgflCq
BQJkH2UNAhkBAAoJEFCJFwPgflCqAukP/0z+xF82bCmLYWQBnESprHWZVg0j/jvQ
MfzHH2/cfj6L0JvnioWX25l8W1BnoWTyzJff+u8M/QV4hoPO9HZHBFAE1HLoav+K
oMyZvx2L/xxCjhVav40azpWhDOZ0xsJ6AL7sg6pv5+mjJ2Pol+s4gLUAO5mVD8AP
kOx8MmD0XjhQjBE/he0rBJodPzvLgDxzRMaz917xzjWFBopK0rmW1V+9gpgdo3sc
8WAD9q6pFm+5HwyxGkLJovPfQ+WfXM9Ei49TLJqc7DSS7SoX76xbd+NC5hQYz9dS
LJkOwQXKUNLT3r0fSrnbd9+5FQmTEhTGABFUtLkK1pNVgRtULH3T5ojsmpHTmhq5
YlpMlkiGF2ZVT7g81g6QiGTeUot2E5+Z25LEwC32m/0LhVv0MBjocrijtSbkUS57
czw+SnhLeI0Orw6FfLHcqFKeCtMcv3oT5WR28Q4ey/NW7o5yoAqYTuX78gOhWJYn
3t9wQhAtfZzaFyfoGnucdHy85ltNvHBn4lkyN5KoU9JB6ZJTMhvelWV8Nri/JopE
wvN+6W2O6LAkWO7TKURimUKhn1V++1ypqg9FHRc1QhxJ826LTwi798WDr+RLyPbq
6IJckktYgkvF5DO0AS6B+i6yvEy+Iu8rpZ2tmt766CX17LpN2UExzBtNc43y5KJQ
y7oNZ8WPmhSftBlTb2hhIEppbiA8c29oYUBsb2h1LmluZm8+iQJOBBMBCgA4FiEE
PxDw2P6E8GmNPK8nUIkXA+B+UKoFAmQfZSECGwMFCwkIBwIGFQoJCAsCBBYCAwEC
HgECF4AACgkQUIkXA+B+UKomQw/9H5Qv4A8PVRhxhzcIUNIbMjJoRg6Sb9oLxMV9
wC2b1Kc3OLi32TqvPmUtWUbq+emakvxu5p/V/MZGQN+cY7AMW3VVhv1swJzQt9bN
waOV4BL+JKwEfgpXWuJyu4d6raRk0OIakHBwn9VYHmZ0VnT3t9r7x1HWuH1OT0rC
nt9GvMbXPuD2QVzGdxhAmWWhWkNs/kd+1CwZyTiapGfhd1y+SFNeTHpeirPD5zwo
i8j7gc8WKAsWjMsZf2BOV/vjrO5FDrOVyct8G1M1ZJvoFQdBNZH03qa+uJviXcVc
O1f5Ox8rVVRqegR+ZL8M6SDy5iPYPOjsi5uXEQv8I+P+iZQPN0XKIbSubdJJtEA5
nmqO9QAjG8IpKzksPemsZ7UC3zbK87B2tXMBZk+wpevMae40HwWBoLJqJ0tORsPU
Wm0gOsUA3hwaf9y+zpwiGHhrkq2YJtKrMZ7xiDKuDODXXblMhaPaY8nnTk8HmOLO
CaajkPshDKqAAIJmFsxVvpKy2Ro1UcfhtnWWl4gSD10Ik//rOR+LTcdfc9O6X+B+
/pO4hVwBlqdsmKrrDFhKrK6+1xvGxh0Ytfl97MWkbEDbcgmE8LVI2ONL79JUy5Af
AVYOuPc2dv6BBlucBQPXaFdZxZ1PeykAu5wZoaDoP68D1c6MucxsQChm4AaLsfZ7
FH4pUe20HFNvaGEgSmluIDxzb2hhQHRpYW5oYWkuaW5mbz6JAk4EEwEKADgWIQQ/
EPDY/oTwaY08rydQiRcD4H5QqgUCZB9lLAIbAwULCQgHAgYVCgkICwIEFgIDAQIe
AQIXgAAKCRBQiRcD4H5QqslFEAC/S5BtEGUgMLkbYlL36Rza1VJP0eAovg73bnJN
bzupwsSCmYwbQ0qUkfs4uxUhBdLuobCufWfAVn0Rtw/MbNXL5vTOHlxTKgzmPmKf
AHC9zBATveuoZddwgGYUZlqJ5BbqtE9tFOqSGcFztz/+lRJ2WKfpY6lWMGXJH/SH
eOqH6mzvGhpFiImd0cpyHxV3e0giSVy0pXj3vKJOu0+bQSp+xgDS8ODVeFksQUw+
Zh5acggupfMYvVv0d/eIrnwoh984Nub4Zdwq1lMX+NCWCi8byPtMo8ztBjzAzRZ5
Zz11SQql0oaQvbjwx3ryCupKiJ+zUuJYLvaUYPkkdT7uIh4Wr9rnX9ruTeyQ6s0D
98wmLIm6sV2TXsRPtMFjmpYelWy1hsPsN9WOjpv87KMtd5/We5L7v/0rjVuKcQna
PIVHFQGEJ/lXIvRJhZmfw1CR3EDAEPp5bBqx9FPNv3Aa7OHMnglAB0W2Qkg8zJUx
E7ks9EgNEblcGqbDnuzfDhOuwEC4gy9bPp7eMwOsqXWp69EwBJYa51ECTXWoHerg
J6Yhdfm0IL7w5u252Jzdy0Kc/b2Dmg93X75ZrTOUAyz8VZkILPOLw5Fb+lZEOibO
kyRaZ1rlVO07/Zwu9rMB7MK+NtHFwT5uQS/LiPY7Hh9nqFMy1x86gcG3tGbji0QF
gd58TrQxU29oYSBKaW4gKFVzZXIjNDAxIGF0IGx1b2d1LmNvbSkgPHNvaGFAbHVv
Z3Uub3JnPokCTgQTAQoAOBYhBD8Q8Nj+hPBpjTyvJ1CJFwPgflCqBQJkH2VAAhsD
BQsJCAcCBhUKCQgLAgQWAgMBAh4BAheAAAoJEFCJFwPgflCq5iYP/jEQnWec2nWg
mbaPKy7lnX0Ctdxg1AtvSWMOPEb5zWFgyQwOP+2NIru5ZKRPryBr/iPPybH8zpbm
DEObjqPNC0k6FhWYFUB1BrE2flixPTlYX045jjfGa94McLvKl+xBQovAWyP6hi0s
m/gD7YzGgXYusObojfCX7Q6R+q+cH49dchh9pwIBQ5qtgWBYZyTFhkGgKjTr4abH
xaGsjnRu+ntqyuYRh9gMdTtmZPCa2YHj79+P7JVr7U3DxU9JEAKhXm3n5Rf8UTJP
Yje5WNRAYXDylCYgPLGlC1QBesh+yGWbeZtitc0bGUpTHfAnQ0Tp7KESNk3LUyqf
D+KG2mFU8qqC+i+mEvdo3JuRXrOomECNBz/hTgLlksMp7jmxGcV65KiajDgNG08Y
9DDLY/jtVvKRCHyO+sPTf6z0y1ilX8CjoEhcfsPR0NmbukavSP1XRGZ7qgc9yfWG
ccI3nmnJfYaB4z2vheDXXQ0fSuToIoOdK+CdIyVUXQ1OEzt98XD4TC3Oceso2gJN
SNln9JJX1/AIFHXbM6EeTsV7QvoPYnQEy780eShnXfp52lqXZZpZlz09aXV/RnpL
cDLpUZBODpZ33rYVXNl7lw1yZRF+CXr03ZFE9TWHysmq9HX0Kz66LsYrm+EBoG8i
MCUisAsJ87CUHBG6/q2kvG2JJkn3opKbtBVTb2hhIEppbiA8aUBzb2hhLm1vZT6J
Ak4EEwEKADgWIQQ/EPDY/oTwaY08rydQiRcD4H5QqgUCZB9lVQIbAwULCQgHAgYV
CgkICwIEFgIDAQIeAQIXgAAKCRBQiRcD4H5QqoxND/4nLbSnqUPuDB4/WF4HyS05
wwfjbEDGoKFGKlty2JIYCa6WhB3raKGI5X2uATQJCt0k49UcTtHOo0R+dtMhyJ1F
Icz7FkY1NY0WWrkS+Cuv2AoZGaAWfQqQIY6EzlD8UhYitOyOlkUgS9PF1gYv/kz5
IcMoD7ia4TUgZyorlihnGL/LOpTSNb4KZMaCwWWAm50oO3Y8UsDg+PTY5BfD3QqP
OLGnCCf0uY5bLhibllJDVBSTYIidVGGwpIC/FIrkFt0NUE1iqGEU+U6u8aqkgVue
/KsgNcvoYQvG9XU4JztqLbcCf3OqwI4DIuR7JNTigcxJtSIeLBPjGoxkSKOIgkVY
obsABNApJY/A0KhkckTMYRCyR78MJMTYhx3lkraFMfB2CLCeCcWUg7lauanoT9p/
tGSHxnlwlJ4lmxJUe+HqtTMc37QIBp21iqXr6iSX6/DAnPInTLbpPly/EtULc1lD
OUsVaQ0rQlF08+YpKO1uENLkYxo38QmbNDWXK2n2UNdctc/6ejQABVJtRmjLGAN1
qIMbDSGAS0sh+yfAUEiUkMop/Zj+9liVbj5A6khGL+E2ElSJRkz/rBnqVGtfthUN
k5pD0HRt6BaIwq7sK4wB3GoRXb3WkopzOBPDJ1cnauO1cs5oUPpPr/+HghSfCBBc
2TiiroLWLItUZW0tUVPk/okCNgQQAQoAIBYhBFF+Tjw2TGxVyQcoSRWsJSziDj/I
BQJkIcG6AgcAAAoJEBWsJSziDj/IOCEQAKcbVslW/ZtoHqGO5p9Qhy442LUSMDpH
yT7hFaw+IALCi1wNd/gpV5eNAS54SWHdO9AqAWZs4nRAZdIQA6LHaH4oo2AwU/VH
ttcqJ00rOF0dwYsfG9iN4/rlpY1+9Z7/kAJf3m/70IVfktpJAibpXtbjoWGE4qxj
Jpm8QQwbeQY8yKhjPLVBEQm9cWnbn+37lS/U3q5e9FPGYPAy/4++DO0/YpmSogyp
W/aAnBb+Qxm8tHytLUJC2Bz1TJVYXH2QUQOiA18VQx0F3MSuFpuwMrtCae2mZhZ0
wRhTBDGBvVhGZIGzoLAG7bFm51xv6+vkxGVgFg1QuFkEXe8JXUrMt6Stcxx+yrbx
XPgxgxt517hxGTkVMCW6oqeO5DZuei8AWpx913E60GvQxhmgcheAxODty/5SAbP8
d2RNUAL/2Kb8krytZCLAodYFogvQMIj/5AJE3pdrPlfN/Or/8qi4kwwC/wM1zpIF
o0fRs/OwbOj9/CjIXO+X6rQrm67MwhAVvzPuqxE9Cyaov8y+MNI+upC0raG+Mnat
6CEBujOkriHs3ZqPm9a0IXj/KDtcNEO4dc1Irhn5DRHqD5+8kdIOaPZFUiEx28OQ
mWu1Du02yxFDbdtr+7Pu8Ez4lqp0kZM15hE2q3CxgSpqtyP7WccwTLJiWb5CUvyE
D04nSRxJEX2xtBpTb2hhIEppbiA8c29oYS5qaW5AcXEuY29tPokCTgQTAQoAOBYh
BD8Q8Nj+hPBpjTyvJ1CJFwPgflCqBQJkH2VeAhsDBQsJCAcCBhUKCQgLAgQWAgMB
Ah4BAheAAAoJEFCJFwPgflCq2eUP/1nQb1hhfwp08EWYdz7LEdqcXwZ/KsxA+evL
IHNUkevi7xSnDkQU/NoxV/v2r7QbT1BicLkYcCvxY4GAUR0EcQYxVibwUfSpVzJ9
OsNY9h3p/NiAXtvqK8oQ2GfpYjsgo5kjfCMh0Vy9lBE7H2Z20Bh131IgBAx2xn5h
U5LujWVqYouEm6vlJ/OW+f4C84XakIzpYezG+jl2Kf5MYsGTxrr61bW9tqZ/fbOb
PeHpKISYk08GdG7p0xwh0N5dkMOuIc7nUOCgeorwHcSnJWjVm3YrcLbWWbZiiHQn
rSn23cU8RDZ032FgLu2HNKNggAGI0j9J7wOp2LjptxvzCuG9l1UPnXKcImsXsgel
hWp3nrSDvGdzemzKLd1PtnuEKx2w4vRn6Y9ympyabRgChffFZPAtA7WdnsiVK3Fr
YorWTkFBC3A/1RsBNZl2kmgyFcz4sqlOU83sVz/TzObkjsKl4dCVZQUGPX/DCv6A
56PmFjz/MYc49qbsr8HG31+XN8obIazwCYHr0bkVZD36YnQ7VfQWW8NLo73S1+DU
F1ruz3Ud7gisELS9bG5sfOOIcgvbgg1zP7Xl2Lw1Tse230Zsduu0K2FyqzQsqOst
68qCvrebdd0/LwPDj1HuFGdyuBeCZ6Dpv9HQ7qUpjvfSEZ7gpVXKR83Mzuj7xgxN
moKtFgADtB1Tb2hhIEppbiA8b3J6LnNvaGFAZ21haWwuY29tPokCTgQTAQoAOBYh
BD8Q8Nj+hPBpjTyvJ1CJFwPgflCqBQJkH2VpAhsDBQsJCAcCBhUKCQgLAgQWAgMB
Ah4BAheAAAoJEFCJFwPgflCqTL8P/0Prcs3ZY9UkYU+O7FEyo+XrntbTwGjvizFU
WHhshKWYXuLbRdi3FpPj51CgZZdaZKFiRPa52p3a/G4biYW2D/p1xy23WjMyLDYz
2pq2/yRTmGbIidc2MZbr3RPv7111+KVpaVI4KF8xL/ilSUoMQGWV5vF7WIV29DR2
Qkujx4A4umtbnvboAtKzx3F8rzH7ahT0T//nP8unp/U57YcXGPsObqEaC63ZHCr9
VXSKr0H5gk1UxDZyS/lgVqaiD8olATW396X4LtBHyqldhfIdDcfGkho9qyP7PJyQ
b+YGkGz00KopCTWVkp6FAKkg/4o1fTLEogWFCGiYR8EarB+x7K7MXK73VhWE89WV
IoaLuMZvdASoEB0/gqwNcYsGuHVPeE8Ck58TsbYVNmZJ8/yqG9co4PltT49UVf+C
e5ZfRg4YdYOYjA9P7h1KCnMvxTMfvyQKHeiWIYLhFY5Oa1bOrRoPHpay3B1L8O2u
7WnBmJXveFLQZTBWF1BhoasGmfWcbVG1zFnNONbBwso7AWKQ/psq1TwBXjFZjrc6
9I9vlA2l34asZauL5ZVxJZp0fDWRy6xIswMi6ByDMprfvKIcSBf5E3i6cMDDiyxm
KrRjzMljgRakfYuIyq9NoiBsfmbArWCSnxFqtkmShLyX5D0ffwAuUh3oo1KbUT8r
ZXX6w8xauQINBGQccoABEADSx615I6DbWxlYQH6Awc9xd802CzGzUZeB8WANpAzf
BVs7RfncsO6KxWtii4OhaFG7Uc8cEzBYLcuXPwZxzWvE3vZEqQx6fMfp7lcSPRiE
Ym8D4j0DgwWqOV0BO18O1g3+PbW2YKCft4qomaVWltSH6SaD2M76NgwcQOre1w3V
/8XSzJ9bLLxC2CK3Lo71gGoE35LlwfkfO8R4jT6wjwnQC9GLYobcPo+hvIoVz0wc
RI7RnpVIqxmHDHq+CSI5OsSlfuvi7M+AWScQpkT+vpM8m0MJjauXhkB82CEoFvs0
EQSdDhXikMrbGVGXp7X1xmCrtm8asQAUV8iWQsgftucvFRI0L/9H328m4KhBSE8h
Z3KqUJ4RHFmwV7IBwSrDvfI/PNtNMtA0xXfvcl8tARmKPT8mko1M2qVdCr7HssvX
LNQugWJBmLicZ/3kLqBA7loYna94eTDbV545X7sdHQAqwJlkeJR31C+kJfVv8uWs
L2cd2W6xwKTl8CV9srgoOK00YKSOTAUcPETKxT4BFNl1f+73Z7iUqFvzo87SgxP9
OtnCY1/JSItQXLUzGL+7BcxdWa2ruL5ppTIM2/0nZJuf4aYoAp0LHK2d75/Fh9bv
LnT+fPaTXkblQlAnZ0pFDP8w5vRSNdpaztMSe9CtMJCBSLgG3kHUUgscUaFkyY0+
+QARAQABiQRyBBgBCgAmAhsCFiEEPxDw2P6E8GmNPK8nUIkXA+B+UKoFAmlk8ngF
CQZtLPgCQMF0IAQZAQoAHRYhBJQVENjjy7WOaBsYzI6aYv4ts1DkBQJkHHKAAAoJ
EI6aYv4ts1DkRWoP/1VbDbFaA8/K9MEE7/Q78xcw1tHFtJ9LtHy/LIH+ed8yxLax
AHdD2A2aD+aJqfhOoVI06Eafhm3LXnuwE88lvuI2QGKgV9a33WUzDZincZ/CRNst
pZFGVNMdlLZABSwlTMNYGKScM+OTuf3pNdegMWTgKUT+EFu6AZoLNh3Ur/FE5PQc
o8Osb9620grw1yrsbQRpPlupBX2tFznBRFDcfm6EGbBdL5mitpPm55quiN6GDmkp
3v6jn1ByrFAUzzChNtXm5skMG7fI7BEGbUYlxga4Q0xyEBlyxA0BZufI/DSMFcGV
h9IKLYNriSEmY4vlmg4xTbVWnhMc0N3I7caGD8OF632D3KyJb7SI7MO5Xfu3EEQ8
eKj/NKY7HfWZHtL6EMd85s1kuAybkIgCJce8fSyjmVDzppVLsZgYe8RSNQQVMYKi
EJfSF7TUWXbFQao80zlkoW0Il4jAzlMW7Tt4s5PqdoNL6eShpKkUZOgkJjeaIcs4
iSrhRsq0kBG7Yo8HYbtPmVora0+hJB/kKPsPyHwGVSOaB7/dyzLyFeLQOgG8ChkM
YBQxSbn6qxXNLHwdop3Ok6QVf5ILlK1rYAa4IQ2Ck+O+fW4JBlP//Aqi2FKz1jYz
GX3a3CyRXhZK/BTSeejkezYissWR/bG8xBVU4xztH2gUl/Dk1Z6ZN0sUTz5UCRBQ
iRcD4H5QqlQlD/0ekuGxy+JBPRFP/wLAaf+aq6pSuHSZRv+ttKMePixBB92gCPuC
i1u4j3xuBGWV4Ww0pEpu7tLKFsg2Z3ZKzhaxb6b4lV6VF7PIh/1b3Mj6oiVa+gJl
/mDW1TH3tpj0YO2XM1GcC1G+WWhAtulHMyJfN2UD0e4zracobhlnfdBsPBCtb6Kr
dxwGNuZz2IR4pVikLSNSeP6P9NJ441ZHTCGG1DGd7O6Y/bncJIqRFAc01U7XlsGO
aD4+tIWo09UNTCdYT8FoDiCNUSH0YfZT1DdKSVHh0RbfqXEh3NxO0C/DKQTR2cAB
6gzdu7ZfVDve/hRLA8oenJORKRj2VI1MGzqQv7UcVcEm/u71H/B2dQ7Tq/cHAujJ
o6rG26Rt5HDS/279+sPNEM1STJx0ie331tc1cwwlzVQTQ6DIGLYXsjSLwY28klUA
JXNuYc6Bjggc3iadX2Up9xmKh6GCyiqSa7xpXSd7pAfgbdJeRLoe7E9Nq0W2GFUZ
3OjGedqe7ZP6wCRUDf4SA6zOg4ivI/Dkz1vlyFFmvqUPzqpmoVD67nqqJLWbWcA+
zFJgLswPGxKzOzjh2sd/nmKHZbCjzN5m4uViQAOB8VY4qmPY0Kb9Aa4qOFITor+F
HvQ1IFALey3mRNgcZqHkIr0lMIHOgPW1VIIHX6O36Ncfm/3SQOkPGJ7Sl7kCDQRk
HHKzARAApQv/wjLCYfZKaOBmdN+8gDZIkoiUwAFLFNMhRMoFs+m3wqXstBPVfLej
pZ1l1/F6KwTIG7IsMPTn3dQ1Ux5Gj8KYY7n+WxraXrakfR4qWyxCOUmEKAvlJyKy
HoPyskxmTQ6zkz/4Ox99G786AX9mqC28LK7nphWqWOc4MBx9Q6VLQ35zKX1F3T9V
tfycIEEehH+9AS3ihUterG+Llnb1YkOMkodh9yCXLAp22Zh/05BsN/3yY5xazcPZ
3ckEbSK3DQa9nJRoEPgqb6uQIySL9a4U1VpE9qAnzeKt7G8ukQXYdD54dckFFeuU
M4twdjAFBNWS+xv3h82FxUJN0SnMlgUXKfT2NubYeOewYwZRv6Fzd4hX22a2Hm4i
TzmsVR95LYZjn/DU+X9ekIQjMH81cJU+Mm2VUlEyTTOKXg3nb0RLk+sN85QbDcfS
Tv0nY6qFejDrbyN363bsUHOLOvwbb+mslt7XmH4AqyhTxoGM5RsNErbyT56ew4FT
AzjGuSStqtnCFuziNp/FOdiwBOYxXAPYWdirJWIcU6XCTiAuRkCAIXx0e2TXNc/w
zYyZq2kD2/0UjOMST6IBPk1+H8YOqyE9pB0WkO1ZyEjdokPXsIkTIiTHcejBGT2x
Cd+b8sikGnhyRFCC139B/M6c1gJ7E4WQqvNQBewV1A5knGbsQpEAEQEAAYkCPAQY
AQoAJgIbDBYhBD8Q8Nj+hPBpjTyvJ1CJFwPgflCqBQJpZPKGBQkGbSzFAAoJEFCJ
FwPgflCqQ8oP/1R5Qonh7PaU1Ihx6pzz5PDNZl9gHofQCPk2bXOCz0EwwoO9F8fk
Eqi9R3y2U8Tal13M7Wh91hxvLH1Zh8OAnnbgI0RwE2EcrF3H0ytvh6CotaQhKuuE
/FUPypmilri/O2gzqgfU8IS+mhj04EnsLyNFGbC+ZWD2kAee7TNMf7hRHkcXjieY
ZlDc3c7I19c4VYYO3OXq4JhNlOIV6SADsNi8iHSDBacP4DqEnm8lgVK2AmcBytNm
NdmcpUa3g5mfTEEiOeAyIs03DwQ0SHYLUP+D/xaZ0+hQ0pS3QGXXFkbN5oo+0/Ix
r8FXJVoGj5hzAg3hfkMCfIpDVmUlVo1+qzjpR+Wo2DmuH53Upn+69jlLVkoHeJZ3
EVw4DGlr1HC4K5fndL7v81bohV5utsfuoXvVFoWohZjH+npjG1tHkxpC2OdPF5Y2
HJun4YqYto/8F/U4LKM1+z3XrqHZ5E2zqQTxvsf7OGQG4g1NQe7OMTzLYzLUwsxX
3Ypd1Ohtn17qO0+MePEimldyyC4GGyIFLCysbiw2cf/j9QcZM3HQJkXulIylG08I
iJwoWWw0K/dMTZlGRd5Wif0gGaYa7TCGHa5Am03WILiKxL8L4LHaADYmQ6Zxeqxm
1KFlJePFTaGRqRaDL/yehaBp14WyNgpPJaoEHRxER9v7zJFziK2pKUHKuQINBGQc
cwABEACp+JaYpHCF5cTTXR7IO4oQDUssvNbOvAvwdEH2hu7R46v6ttv3RfK3b4Hn
ujOes2tC0YvjlmtoTdIZSlJylrkWlni6NVmVVeSOXSeZzBVWzVbuu0ZYlOe2BvzP
on2GREL7rnTCDAd3dZuIrPgOUzSNVx/yTNd2E98n73Nwe7THOocSLyPFxJq/qL5S
xfquNV93f2dM/4DLvksbtKFesAqfWFrB3cgsz3hcDINz8uO17/t2zZzj0SKDGXMD
y+Y7DWhfN/mJVqtGxQNE1C68ZlduNzyIML5kJivZobVBsEfZoMg2rlJZSbgLr5nO
FAvXA8zZ+17bcLYz6b18vFZuHKgFnLcLuEUwSQi5nDYXKzB4w4IEwCDJzUTVTYfE
H1qAhtXea5ZiwnVWCip2dxkEbXZ/usKDAjmNryPmLIfSj5VM1MKWmCsvV1TYbg9Q
9dDn1hpnaDxLKLcqJ5InpKi8XCHiu0dc5CtPvFjfmMTCLvg2v9jKQdGSm2SHS6I5
dQWfZExQltm1gb20JjWJJIjFXEn2Waay1eMoa0D52Y1AMdPfZ6M7Mkf1U/Bk66Jy
ke8W4UmWJdXr/fXU+1DvrEWKRxBdkorEzTSXHcewxxcKhu5jEdyjmNGdcjdYyPRt
CsciZCwncRP4ycdt6rKfCQ1T7hmwmTOdH8w5ZfOU2aBm/ObBLwARAQABiQI8BBgB
CgAmAhsgFiEEPxDw2P6E8GmNPK8nUIkXA+B+UKoFAmlk8ocFCQZtLHgACgkQUIkX
A+B+UKqOdRAAs24Qgx3PudBS0sdzK2rI7RM8kxaJLa56mhBp3Dndw53mR3/js9II
w3kXzphCBiyj4yILCfq6dCnhHIc21FGF56KYVm6O0X+xsZikuLc5iEPxiryypy/n
5+PaD6/QSy63bOFlJA3FrrawkA1qV5SXdR/pLcD1rBvHzmujowymdJoDpdBfx35h
0lMt8V/4Q2he1EOs/2Klc09losnHj2HHvMLW0Y6cKgwEkw1HeC7xxOBMGEdkVDao
G8cL/p5agn40pr4qiMjCqrDZ0notYo2tGLPKztAE4M+iQJDVIqziHZTPcjzm+Lj8
v/RseEmyoULOT32tPvmOK2VewNdgKqqGJo5WBWLGyfJE294ToggIetFwSXMwYCFe
PWcj513norTo64fheU68x94KNdgkXpi4jE6gtFhYXInlvPCYTAvhkklSubF5TFgJ
mahiF4vTZhUxK8n2mtWHKp8gJYlC4UdEUHS0Y8jItqrAN8T/xPyH7bFe65S9JhOS
6y+Vvg4qn1JaG7C2ZjkBI279W1g/PMSE7LFIxOS02lwthwdgQpkJoCkF2epK9aoL
wP1aVmMHO7JUCE0rlj5ZSquygGRNb9LnIO94WbyCVt4qepAzqCMI2lcXLT/1UMHh
JAth0x3jA8LQIFyMG4agGlSQAtZJo5MRruxxzvQoF9C8PlpY3TNHebq5Ag0EZBx0
VAEQAPx1Ow9EEXuCflS9t4ufx9uyoPb92WrNm6HcK9zYERyhtZrm0G2gB43k3Ma2
P+qO9++BNH2kzeg3ks9z+z6JY11T5vKmKw79FR7BXyoJGl2Aee5jxRLaAEFzjSk+
L8nvprgcDFWDzKs82FCkqeeRcDWBGJbl9ywiv+rwJ/PaM2apS8AhVA3SsN46eJch
E5NKfnVpDW0SSJveHJR2tL6HDoxogqiHI+RKkCWG1CdU2mcN2rU/AgxuRADBwlBZ
1+sROa710U7WVNSk+2KoQmqJn2bd8aMhdQLnUvL+girkGHQlJpA2NkDrvUd1CwGX
ky1AWzNg7li81npVBbyMTEf8SFBiTWKKqXsm1KEwZetPcXW+jPmN7PA2hmtox+JD
onietT9fSL9tjRM6wdoHQkpGpI6fbM9o3WreyPV2KeHEPTX9JpBseJ2oTHXviGw+
M/S74fIBJEXLIkk2HAzjKh1LPmwbuLAFVTzEP0FsizVtooIYx/nsOpml6Meu/KT0
K24GEp09rAVtCe9ZNMXn+HwQjyIJe8yN3bd6X/DDZxrxs9sw+Kqty2awGNa3VRzY
WKcU94q2TSrD1+QnoKA+34oZ5OWGVStvkEQk0W81lZIEL1dUd+Xse1wtoQgainp9
uqqUFOglIqU1i1mBm7SE2mrunrcVUR7kGk5FiQ072ddVcWuFABEBAAGJBHIEGAEK
ACYCGwIWIQQ/EPDY/oTwaY08rydQiRcD4H5QqgUCaWTytAUJBkBYYAJAwXQgBBkB
CgAdFiEEesJCChsqcY55Lf/hym9prpmQB9MFAmQcdFQACgkQym9prpmQB9Pw3g/6
AuKayH6xXASofRkP+sULKy2d+M6LymtDeVyop3ISStNv2VL3OYH6DK4QYSkbXnm4
x86TmdzYBy6pJ8RoxQYYFwuFWhH8Te7JULj6Q/0bjW29dN7lkoJJXgotXT8PGmkt
f7pY9mNKkWO1ugEu6H1TJAxpWlMYlGxBuIijqFa0W+1QMn7GFrjmH4heLENE0/DU
FzRHXzrzUWiVg8AX3U9s4p6DaBrO5cytqVTJ9jSXnMpZwQwMvcC2fdRHF7vGKkJw
UFXayXgXa0mBioUw3jh3bsSxAHoe4JFrQMN29bcReiRgT8joiyx+pl3FurfJPnfK
ddrYGAKCu2EAOf+DScsLiraG9zNdy9Hoa8VwFhm6WNosTbZlPSOQhlKBC+kjE3vB
rh8slwDx0b3/ozbEL/LbPfh+JdjwDabi/fIGJkpOcQXBJdGOH5Y0+1o3cdQ8X97A
83sKSs0IbBy/xq8szmSVbaYkZmefkSFDLAxM1KGzRrg5FIFmTtYMZhC332bAU6DF
Wx3YItkfFlpRkiLTccgOtbUV6RVV9V6hYEoSLSTAYPqol+jtKIsx5Lihsi++iE0b
nHnsfsLavhRe2pT5cRvwAZEOTXQrkJhfog0eyODP04yD0mlc9vx3kMPtpMnUXG1p
jHitUafuuZdBz/u1PSSFby7dOGDuxvKsKfRLiUwooXMJEFCJFwPgflCq36cP/0Rn
b/Ezi7n1aSoAE8m+n4RTfdUueM4c3QY7T9vAMtJJJAj1L0LUz5TYuNYEXJ2tVkW0
phlO+jSsynt58v8Iw+mZKZviwH7sgFlWCvdgVj3PdhL9/tgqvdLhKctq+rTx60km
70JGSoaLQCFW5txEwfOxWpmKxTBfMc5GXyth/LbJEm0QNcgAANXtMrmsOSrg9Tgb
1SJZR6E+9pbHevjsS4quCCdWxlRgmy8T1VWdTCx/X6Q7dKeuDswcLyeZCHIWfRFc
N9DnPbBaaXA8OyPw9Q6EC4fVwMt3b+cEb5SrEF8B/IsgdJvNPTnGHvavVTgGDMW3
uZagQBVcTFweFfKvnQlLmSpnYnhBja3MbiVIFgMxveqp/p6pIQu9ue8cKKo0gt7N
h2SpjqO7ttFN4TdDU4si1vXt5CEmTi12z3T0LZHUsOzZrFDUGBEXwo2Ou7ZdKWVn
VfuBaoc9sjZJ65aU9I8D5PVI4RJLr7/3cnKU8BaK7ynXRu5tlTMtFYR48SQCDI5/
6AhN+MuvZ0y9ILIifVzNlQC81KxODX2jpJZBDKbG97FpW/X5DRfmXb80gU8lsQHQ
rYQnUXWoBZ4xChrCJbEUHRYBbiwbk0UOgcj1TumTGR8deH2ZyLFqvLKl7YCr3TtA
LpgpbMz4Hx00hB+Xc0QFcv9k6+v1UpPlwNXUvanLuQINBGQcdIkBEACbl4A8Ida6
LuBvSBO8tJTCccZor7mfuWK8CNyGO6SWVygiECcgGZkwsooNpef7Tk6h44EI/2NR
o9/pGzxxDJz5pjVn72udIXQtwn87m8QsxaW6oO6qVeNDqeNfqiwquP6eCgYPgmaY
+YlbUdDAeR5pvI/j6RHQD+QM8rMnna3IEWzEfXvHutO+c6CM0cd1vsDOtYFvQ5DR
nemOB0k1OhiMpS9OcGyg0+g8hkyv3OH54YZcq0yXSdQFDQDfwvcHtcChAzpeTbnP
25836vWy5vXPqhZeX8Mre1vMme9ml5vyEpYfCYqQXzFZJe5afnwCjQ+BLUqgbBWs
L12J37kX8W/Bhl9RWnNpZhftKmJWNBQszY80vTSEQjQlNBxHV+ukJND4NRZt8gAg
Yx6ikyI0ZbYb8E8TEpLuTqmiAeIhnF/KC8S6opbRXyCbi+4YOBJKrX+GGhCbrCmW
Wih2c4U0W3pUnGyyqK+FxNzpjqNs8WyGrK+bsFkPwnGHFf6+K0egSU6qOBX6TFQl
y6nEBrb9AI3O5r2fe3/zVOVQYf0ZhG3rVI73Lht3ahLOfpViYVC2AQ22yi+tpY73
gTHmqFHzDHhYwxoz8yRdQTJzd7oScB9wOMZyqv/a+uxMFGk1iVs73Jnz7MA5kD5A
57e23VC6ZiBQg3nSI6GFE82Ut9Kkaw0P4QARAQABiQI8BBgBCgAmAhsMFiEEPxDw
2P6E8GmNPK8nUIkXA+B+UKoFAmlk8rUFCQZAWCsACgkQUIkXA+B+UKogEg/9FcR4
zfgmd5JkJfKWE9knsGJNVxE7Dq99AAzShu+t1BpVs7wL4eW4XcTrHD/yA0L0a4/C
7UvmCcwo4U7t8rVi+SrRhjUTwfgOmQ2OcA/1wgIXYUUdwW8cBzvUTB8YQvYJ2Eno
0tbgWz4XE/O9afPxK3oMgGs/hgd939BmjvB1LEIu6OB38VLkOdQcRDeXI+kQqobd
MgLwLiZagM6A38umRj4LavjFINmqlf+Ei4mLZBpZ624db2mlTJ2zygBNhsVb3LN7
WIZKUdYr0J5odBI6tAjVWcXBj22PtAHd8vvAlenmXCpXwNxPUN3yYaBOPmI0iWRX
BCvw8wjm8hzgd7MolimftSWK9CgS960IcvLXCo4wTYizXQPwv5wa8cpajbnimCi+
UiAOLTAS28jxheH74+pV67VCr2r+70TctpBu4PfzTjY2j1E4iStbxtCkZeX8e8CO
iybDDO5Zf/WXypDQQJw6x/YI3oR7uoHdAeshqO/VcVOkFlT+0MBJ5U34WsjwYJaa
NMfLs1oh4LzA7iWH5bRai4Y4+cs+32nV2AokuIFjleKR9lPMkjDuCf1p2Hop+Q4o
evWt+EfHZU6SqHAfBNbNBFbeAL66it3Vk9f98Xuf98kFbcDF5Alv0BTQ0RfsFhDi
SPbJAmy4vFj+3KQnWZwt33H1SuekzlihLvZTb8G5Ag0EZBx1NwEQAMkSW/LxKZ5v
k+nOwN7IrTFoculZUrAfn688++vUyr7qXHirFrYF5GL3a0FM5cHoILsIxmVQcnrm
1BWNqzhKZ1Ho3dzefCvEXrMgnTRtLEKnr8K/6+6cv8t5nyYjvzgk3mhtdIZC6mUr
qA5BWLCJmycMlQhpF0EvWGiqam0wWaP0HEB24GCjgSHyKOB6PMWE7FYdrms70ZnT
zt/Hxt3GTaONDeWVbSBijRuj0rM/yaXJTD3wyA7ZHHMVtZIKc+bx+OYDrwCEkBzb
XwJZkxHmNuP0upjP0TLZsrBY5lkaEZCT447+NUpwQ4rrLGj/NAef05CPoCvXvr9S
UWcG6vZnXF08NJLJt8OFaFM5v0jgh6Q9wWTOENGbTYxCKf06s5fwoPJTD3CN8eUR
xlOgKUwibzwCTAeB//qUfb/HotqdJ+Vh4F84OJkwBSHh9rDzCAmaIzHmBgKc0OuV
9CnF8xIjW6rUvfhKNgFAv5ABexofLE+rL7SDcFuk4VbgkpIw04Ae0/Lg8/2Zj0EF
peCpMaCJ9XWd6VI3l0qQJbW0NNfd322D1ABzVk6aOAGIepP69AsAyZfHtBhsxqp1
BgMOP1ZrP/jc5Q0oc1eaMAKAMAPC0As7Z5SanK/Zw1FUbUGJs8FNPC8R08C6QhHl
0uWVDDCcH+XcTpfMIcDj2BMQnzbBoLNrABEBAAGJAjwEGAEKACYCGyAWIQQ/EPDY
/oTwaY08rydQiRcD4H5QqgUCaWTytwUJBkBXfQAKCRBQiRcD4H5QqkgyD/0QyawC
8CzcXZm5Y9cm7+HUlo5qfTH6WKkD1B0HX0WZ7yESUy4JaVgMUfak8GJFuxDfYS+R
XTQoWEQkFtLVqWQi3nQAwBIBG/AnE6kYQ16x6U+dpp3Z/vWupas6E63AfWYaseE6
fu8ByCUv2VbxPjVhFi7kd/alqhzv0pfvVaEH2rleP0jrkX4Es08kp4EFqp7eFr5N
nYqcrsJdo7P8g3PFQzEiZY95kl6GhggjYwPp0VqZsH3kepyYBdvU7Ym8zlDCmW+Z
bRexrs+5p3jsZstH2GeUzH0jjU9NZR5efjEfGygXKTy+rHW2/aikjCKPBwksFpU+
1OS8cQRd2bDFneqDEiTrfgM5IayMME/WzmwJOB1C1jPa7lvXBlK+l70jC1iX5nsb
H/W54165E2N3FtWVsFO5QIAMXQch+0I3RfykLAH14g9PcUsi6l1eogJvNfyZ0cqJ
NNE8osli9HeXIYyx1VuEbvNLwPymVTUONIGovbkT9M75sh1O9x+3XMq2PMYR3tZR
FJdbQqsrJ9edsr8iKrNtM0V0PR+A9RGwbWH819mvuU0eMeuOCN/uyQKLK5VDcLuc
3WBjc4JCCz7hNU643h2gX8flyOcX3snfVt3c/Mg7LJ7LjPgSevxeeKttmcccuVVE
pBe7O+rF7vWHbaH1cbmEC6mD2hjf+jPtJbYGi7kCDQRkIG8HARAAq6ryvLotqR5i
yEws0BZuzEQCyz4/D1euWEp2ZUZcXlBB75xyhXCIHK08BUy3d2AZM0El7rdZqyxf
oFp9+i0AAHKn2Fhux1eHhOsoGkCa7oJO3zJwgE6Kt1poloSL6lf+UmkH9fzu6sqD
HHJ9LDiYSBchVyyG1X4yFQV7RGvc4nIq2QxMjRpP/XcaGoXXpRuN3muDcFmDG4XH
uslZMP4j0hOJMZSfwJu2ZkfG4UDuzUlC54rnGUY4FqLToJzCN4k7m1mKhaSMYXDU
kGEnBm5pZbFicFiroA1laC9YNnYxoYqe5IiA4tQG1lj0ShlS9lTUCYRKrGWZbdQ+
Xdt5MY0hLn6TT0moCHxLUSCNrTTnvB+4RolWOv9xHdEVhxGIGqNX6zknM6E+lzqF
gREOJNrdYYBe5fooH5QCCP1rm2Lq2s7aMfO+daCev/7ardEY2uVUh19IpGoYCAGx
tcx/zBWK4npLJAvWS8kFymkkwZ2BdjuNf8yai3zBDvN8iCye4cM4M0v7IyOYcRUn
v9lE1/FF1OSRI4kxEIhKoO+SWr0xsQFkMrbTysSDsI/ihrqpWpXWL033z+slad01
jLwLybPRXMFrRTEVMmbmDqfMjPpDT+lp0PpOhpyyg9DXiQ8rjllbx/wzC/NnSC9v
PWMEXdJgc5exd1t25qCegVgtBMHa8x0AEQEAAYkEcgQYAQoAJgIbAhYhBD8Q8Nj+
hPBpjTyvJ1CJFwPgflCqBQJpZPLPBQkGTC/IAkDBdCAEGQEKAB0WIQTGNT0y31w1
fXNM4kjsPQ1+b2kUsgUCZCBvBwAKCRDsPQ1+b2kUslOlD/49xMWlyE72gKB6+Fvp
I1FdCLVUTU4whYlrnVpZtHSuHUClZLhl7INhIvbRUqOu6MM21M0XUXEfLrTRoluA
3otAYdI2MFR3PPTGHB0y+IoA2QpwTu2CV8aXo7p2zLU8e3ZX1hAMII3uJLPZ2zg9
WubxzK6qirW+yNcwbR99IhknO9iurczT2r2YeyxLWR4UAgp+IIh4FztGX7t01Mph
c3MAzGg6CY9BYRoKOHbBZUW6XoOrAeGEWdknrR70GZM6JCusGON5HEBZMBjLT4Rm
cNFxVozBWg7BiImBjC7j0yZDV5byyX4jObpcUz8t9Pk21cGMaKg+Dg0mSZmghthE
Jb4HVzeC8iHy/CZCNlNW1VnBTNmpPw6bKaMZa9oFa418wXkCy+iuR18/QNTwCnmF
KfdM+v6pJAtlUfXSMOUNaEWkRFPOMdk0Pklgwa+nceQQymzzT9LywYRbP/Zky5Mx
zx1ZCXrB0pcxBkZ0GYZ1dmPjxQQAhIMg3yABXPmXnr8JXYVbk9hBLAhO40ZBRC+S
E0sY5GK1qZm8m5gtdGX7pTQvw8/KT4Pd1iI/xRuHX+eG09qFRiZQhAR0Nbti7ohO
A0TXidxtiFt/nInaTpdxnTgcu8zppGiObSem+X3ux2DfHYcFZ7qEZm1GSUa1jIaa
skGn3G5eRkzHZ0hvshKdZ00NbwkQUIkXA+B+UKp4KBAAm7FvtawyYt4dTVHMwPuG
nz5Lwh63hS/tWMeeeND6/ID+K4CGXqD4GGuofZ9SuCkIpoMMHxlu+bGjNG7V9rFH
H+YgVtm1rf5U1Js+aYncVulD9jNY3s7H2RgCIuEpxYRJ+ReFfEUFIMk7qHfAS9TG
Pan4UuzmfqWMoGxT4SeOlFZ2gIyCmCrGy8nq8DLvVZEhlWhLP1kDJ+gSAcKcO6Fg
ZPORzTJqH/xCZSnavkmX7nmet2i8C6wexrRqHUmEAEtLpPpmqzS+6LABHCRED2Yf
4pNg4RqJNgJC+42yKilRrbrMBvAqQMiPrBM/7eK7UUjZ//vTPOuUHDj6at3aJD7c
Kx5s5Lv+nYV9hVuW/gSms96szDj1VrnS6avK3AfrXMWty60Uk/DRdvDN4WYABv3k
7w9HyRTWpUvdykR89xuwqlSBKKm6yLvRt2aSZIrqEKyKktWZz2M4f9JdZKxDqETK
mjaPeKysYmKe15gjY4Nhfcmr+Ox9cGS/RPfmrAHX/z/w2pbeZ4xXypZTmIdH3xu/
w3DXxjvbiy7G/SvLhK7OxIQBplOt0zbXGFnGWEHbpNx7Ara0IdD24KWfmSDG2sYp
W6HOP+hf1qAHozJZ3CziMs6iIoBD0gX9VZza+s7Uy/lo3rs+NjZtHjf/T1/oTVBF
8W0vtCrRiym5Gmq5xhp+U/e5Ag0EZCBvJQEQALV95rHMPNzFrls8K9CR4KuqRkQl
8u+qM6oTLDAk24okGA15Y7MVGBrBVkyeFTNGd6J8j7fHNcM0n6R5v/17aKXYx8z/
3PCoduTH/2fekEadlZTcB9HlxiMFqW9p6c4ss8ypJKVLrA3iWHtRl7DFNhPOitoe
C5gjRsrUHtOnnOlxdVGjaY4b87dKLQXs0Ijs38faFffjpdgqecnL8zzYmoNCd8jV
+NQ2sv5iRfqSXsxk9d8zUAKvRD2POZAoRgjJDmsbnEFAdK/RdHOBrwGGwK6LU3So
QzLz1gnJN2OJDrkw9LjsechXvWCNIk2cyZIvGA0zu97yPN9JWoIApnTp07ENUTQ5
GXUC8ifKYgF8o8h1seX0ZZg573arnNQuRod2/WhoBjwQ+UN7dpn3J7z4rBdB2nKS
onv9ekl91cvXp/OovMGsQZ4uNqzATNt//4NlmUHZjDs+P7MEdyoqh96bwmc3Lumo
45vKxkj1vyulvlufeqc5O5qHDUdCoOD/ojp6Ak4rK+2mkaRb7xCRuolpwShfLzBx
aPWY55g7UF59YvA6WeeC5WW7A2sXc54arNQennwFt6tS5xgljvv8+HxgJt8JP5dZ
XqeFw8TlwUBtq8nRsSUCGOEV7ktIilT883FafqPHcIxEAtOXlbt8JANWq56WZswK
qbGQLPxw8qNnu7B1ABEBAAGJAjwEGAEKACYCGwwWIQQ/EPDY/oTwaY08rydQiRcD
4H5QqgUCaWTy0AUJBkwvqgAKCRBQiRcD4H5QqrRLD/953ScEfmhyDOjVOX9SNjj7
lQ8hWgQ46cD1OHN1gujJL1Z8HH4sKQ9EauU27XgFV9NJlLYqTkUUcnkXgKjF8Hzl
DbgNe2RvPWqgOPYWE5AMwKZ5xWqji1aPEUIolfPrv0gb5Odibpt0kbYYU7bX7jSu
FdqJN2l+yS9S1I1q0Peuol6MVFS50P7+LLRQstp2mNUyVOifw0d8ZWRRs8+DLKXU
C0GENmHCs8CuMTLfSwBnEE3PE6/2ZdGbULAJTebT3T65IuLMx9aJva8Vsfzii8i7
vIrp5kR8OSZOJCXV2Ev4u0d358k9wcmfoFgyLYYtGrXXCcAPGJScxEj3aJDRPgtI
4s2sebq1LoVAgs8T54TMn16JNvOc8YUq8kJPnkcs+8vdp12UfoSOUH1SZNXoLyVR
fS7BX3TJHVANBWe8Kk7gbu1LIn8b0+rltAlun83I5Z5PANeXP9uFGe9wPvhDcJZK
AVik+56aWD6TpeV0TdTTZuGT0tv72sYS1Tjh3PPiPs7sbztggBJWG8VNKefzTtGw
eZ8rLrDb5QMxKKGSsT2Wnb/MXku92AoLZNI+VVhPlt8w5/Ofin8Kz/x1dsI0/4lV
Tg3EH7JXBVio3R8MrXcWVlxIyo1JV+iVHz5Xvc7BqU5PSZKl9mzovNzGlUyy7Ggv
WYideP5WcyjIbh3h+5sA4rkCDQRkIG81ARAA3Jf4vz8hJ3LlCUpuHZcgqHjlBbR3
yDTQPreQI962KW93pX4PGj+j+EjkEjfC5UaHqdj/jGkEGsLm/J/9LbDiEVStF5pW
/+qehOQagEWl8BeEtSwkHIo4zI/OogwV7TBzqWjLGKYGxQsQMdQNl6MHN5vNeP2J
XsnnMkilmYNcwP9HqU8xPbTa2dYk1r/yJVzEV9kIQ7KHUjY1eS/XZlyAwJF8Ecfk
8vuIUoyltmCsm2rAiecvz0BRJoepzQYuxOC/wIVrAQpu8td/SDP0XmAjKe3+HU1p
QCLrO2wMLz5AI2+i34Uo26xfcjPq4ARuXTtSJCHvdQ9qjKI41T71ELs98xl3Fciq
XJrDNy7z6gg2x8ARgNs4j9Qu0/kPBqkj/aBf9Ee4soVWyFZ3kCSjSQtgqptecFes
4IXA6Qho3oJI3ht8zAm0uIROlnMSV6H5TtWxHrzp/mBzK4oOdGMkJvRsT1WvHV76
Kk2g4o/6WAjgBkGntE0LIv6cHhExyPijjGao3L3Za0QJ3Mr2qlzFfCLa8gn9LhsU
mR8HGq/N+PshWRZFwYJ/V2bzDtefdvmq7lCrq/2lkD8mBmrQjIjY1TNicB3MP0Cv
qfPY7fMqUwXMon5ht+FtXwq9MRDrlC/7DQTPi5DZPLlP878wB6BnOuFfHTutE2sR
5WNitokhMpWPwqsAEQEAAYkCPAQYAQoAJgIbIBYhBD8Q8Nj+hPBpjTyvJ1CJFwPg
flCqBQJpZPLSBQkGTC+aAAoJEFCJFwPgflCqJ6cP/jKnphlSwQmRZMApEwYQGmOb
sOQgzTspKYIwr9xO5OYBXx4+JE1h+cMtuWHrU5NzKHymqdPsspLdUk7D/ZW01YbL
wTxgQrXMc5P1fkAqNu7RutRD38SJEXkZcAeAY4d1r3dqiuuANBD4WMh4lPVL/Flm
270NjZIRaFgsQV0vv5FvsQzPyaT9rg4+Ztr4I1nqAYGuLLZSYwKHEguXu27HrFrQ
OCrV8kw2lCVS3cBlooapvlpctmK99xP1U5nmYdae/6UkySF4QtVgFS+MblnV6SlS
Vfh3OFD7XIlAc2XQreqpIfKf5/DM1KE+rSMQQB4c+yZ/QSDz+zy4aa5CcJXdqFkG
Qb9WeQOSytoxbGKFrFQy35twmz1JNjgsXL2TgEug3ggMzBcs+2krf3lx8KFCTm72
Iv03rpyEu2OjJgIScCXyPitNWBZ53Vw+VvqZX+H5cdXoxyNsTRxYHkGHa7o7DqY6
1+sH2VfNPtHmhWsIeuetkXNRkNqRZyT5ewaufZfDpqik5Kccsn4oreS5CNmop5dK
9yJGGFisPtDmAn2mKToqVpyh/YOx5UpX+ozP8jhtX0ynBg4WIaZHK3HjrJtY1lXX
1LNmfnHP1z8PW+y0L0Fh6CFx5qqi8Y30bhc4UM5t/c1SaIHyvpZqLinHj4QYMi3+
5P8BfAIv06fnmI3Bzs2w
=tsSv
-----END PGP PUBLIC KEY BLOCK-----
